dist/assets/img/logo.svg

<svg width="32" height="32" viewBox="0 0 32 32" fill="none" xmlns="http://www.w3.org/2000/svg">
<path d="M16 21.6471C12.8812 21.6471 10.353 19.1188 10.353 16C10.353 12.8812 12.8812 10.3529 16 10.3529C19.1188 10.3529 21.6471 12.8812 21.6471 16C21.6471 19.1188 19.1188 21.6471 16 21.6471Z" fill="#AE9AFF"/>
<path d="M5.10548 18.2821C3.48683 18.5623 2.37733 20.0973 2.99867 21.5912C3.86615 23.6768 5.2501 25.5349 7.04429 26.987C9.60985 29.0631 12.8458 30.1725 16.1701 30.1156C19.4945 30.0586 22.689 28.839 25.1793 26.6761C26.9207 25.1636 28.2378 23.2591 29.0306 21.1451C29.5985 19.6309 28.435 18.1348 26.8074 17.9102C25.1798 17.6857 23.7185 18.8487 22.9145 20.2562C22.4787 21.019 21.913 21.7111 21.2353 22.2998C19.8065 23.5408 17.9736 24.2405 16.0663 24.2732C14.1589 24.3058 12.3023 23.6694 10.8303 22.4781C10.132 21.913 9.54208 21.2407 9.07942 20.4932C8.22596 19.1142 6.72414 18.0019 5.10548 18.2821Z" fill="#AE9AFF"/>
<path d="M30.0084 17.4048C30.0805 16.8399 30.1176 16.2644 30.1176 15.6805C30.1176 8.05998 23.797 1.88235 16 1.88235C8.20301 1.88235 1.88232 8.05998 1.88232 15.6805C1.88232 16.4299 1.94345 17.1653 2.06111 17.8824C2.70956 17.0147 3.72163 16.3954 4.8148 16.207C5.99757 16.0031 7.07252 16.2835 7.9814 16.8076C7.92771 16.4394 7.89992 16.0631 7.89992 15.6805C7.89992 11.3082 11.5265 7.76375 16 7.76375C20.4735 7.76375 24.1 11.3082 24.1 15.6805C24.1 15.9687 24.0842 16.2534 24.0535 16.5337C24.9432 15.9788 26.0077 15.6617 27.1972 15.8252C28.2962 15.9761 29.3294 16.5602 30.0084 17.4048Z" fill="#5429FF"/>
</svg>

<svg width="32" height="32" fill="none" xmlns="http://www.w3.org/2000/svg"><path d="M16 21.647a5.647 5.647 0 110-11.294 5.647 5.647 0 010 11.294z" fill="#AE9AFF"/><path d="M5.105 18.282c-1.618.28-2.728 1.815-2.106 3.31a13.728 13.728 0 004.045 5.395 14.128 14.128 0 009.126 3.129 14.111 14.111 0 009.01-3.44 13.703 13.703 0 003.85-5.53c.569-1.515-.595-3.011-2.223-3.236-1.627-.224-3.088.939-3.892 2.346a7.896 7.896 0 01-1.68 2.044 8.096 8.096 0 01-5.169 1.973 8.106 8.106 0 01-5.236-1.795 7.908 7.908 0 01-1.75-1.985c-.854-1.379-2.356-2.491-3.975-2.21z" fill="#AE9AFF"/><path d="M30.008 17.405c.073-.565.11-1.14.11-1.725 0-7.62-6.321-13.798-14.118-13.798-7.797 0-14.118 6.178-14.118 13.799 0 .749.061 1.484.18 2.201a4.42 4.42 0 012.753-1.675c1.183-.204 2.258.076 3.166.6a7.808 7.808 0 01-.081-1.126c0-4.373 3.627-7.917 8.1-7.917 4.474 0 8.1 3.544 8.1 7.917 0 .288-.016.572-.047.853.89-.555 1.955-.872 3.144-.709a4.428 4.428 0 012.811 1.58z" fill="#5429FF"/></svg>
